X:1
T:The Old Book and the Old Faith
T:George H. Carr, 1914
T:The Old Book and the Old Faith
T:Public Domain
T:Public Domain
T:Public Domain
T:Public Domain
C:George H. Carr, 1914
Z:Public Domain
%%score ( 1 2 ) ( 3 4 )
L:1/8
M:4/4
K:Db
V:1 treble 
V:2 treble 
V:3 bass 
V:4 bass 
V:1
 x8 || D>[DE] | [DF]2 [FA]2 [FA][DF] [DE]>[DE] | [DF]2 [D=E]2 [DF]2 D>[D_E] | %4
w: |1.~’Mid the|of doubt and un- be- lief,|we fear, Stands a Book|
w: |2.~’Tis the|that tells us of the Fa-|ther’s love, When He sent|
w: |3.~’Tis the|that tells us of the will|of God And the Sav-|
w: |4.~’Tis the|that tells us of e- ter-|nal life, Af- ter faith-|
 [DF]2 [FA]2 [Fd][Fd] [Fc]>[FB] | [Ee]2 [D=G]2 [CA]2 D>[DE] | [DF]2 [FA]2 [FA][DF] [DE]>D | %7
w: ter- nal that the saints hold|dear; Thro’ the rest- less|es it re- mains the same—|
w: Son to us from Heav’n a-|bove, Who by rich- est|ise cre- ates hope with- in,|
w: teach- ings while the earth He|trod— How He soothed earth’s|rows and re- lieved its woe,|
w: ser- vice in a world of|strife, And this glor- ious|umph o- ver death’s dark fears|
 [DF]2 [EA]2 [Dd]2 [DA]>[=DB] | [Ec]2 [Ae]2 [=Ge]2 A>[Ac] | [Ac][FB][EA][E=G] [EA]2 || %10
w: the Book of God, and|the Bi- ble is its|The old Book and the|
w: ’tis through His blood we|are saved from ev- ery|~ ~ ~ ~ ~|
w: whom strength is giv- en|to con- quer ev- ery||
w: the world’s best gift in|an age of count- less||
"^Refrain" [GA]2 | (F2 F2) [Gc]2 [EG]>[Gc] | (F2 F2) [DF]2 [DF]>[EG] | [FA]2 [Ad]2 [Gd]2 [Ge]2 | %14
w: old|faith * Are the rock|which * I stand! The|Book and the old|
w: ~|~ * ~ ~ ~|~ * ~ ~ ~|~ ~ ~ ~|
w: ||||
w: ||||
 (F2 G2 F2) (A>G) | (F2 F2) [Gc]2 [EG]>[Gc] | (F2 F2) [FA]2 [FA]>[_FB] | [Ec]2 [Ae]2 [=Ge]2 [EG]2 | %18
w: faith * * Are *|wark * of the land!|storm * and stress they|the test, In ev-|
w: ~ * * ~ *|~ * ~ ~ ~|~ * ~ ~ ~|~ ~ ~ ~|
w: ||||
w: ||||
 (E2 C2 D2) [CG]2 | [DF]2 D2 [DF]2 (DE) | [Dd]3 [Fc] [FB]2 [FA]2 | [E=G]2 E2 [EG]2 [EB]2 | %22
w: ’ry * * clime|na- tion blest; The *|Book and the old|faith Are the hope|
w: ~ * * ~|~ ~ ~ ~ *|~ ~ ~ ~|~ ~ ~ ~|
w: ||||
w: ||||
 [Ee]3 [Ed] [Ec]2 A2 | (A2 A2) [Ge]2 [Ge]>[Ff] | (F2 _c2) [Bd]2 [=E=c]>[EB] | %25
w: of ev- ’ry land!|||
w: ~ ~ ~ ~|the * grand old Book|the * dear old faith|
w: |||
w: |||
 [FA]2 [Ad]2 [Gd]2 [Ge]2 | [Fd]6 ||"^Grand Chorus" A>A | [Ad]2 [Ae]2 [Af]2 [Ad]>[Ad] | %29
w: ||||
w: the rock on which|I|stand! Oh,|old Book and the dear|
w: ||||
w: ||||
 [Ge]2 [Af]2 [Bg]2 [Bf]>[Be] | [Ad]2 [Ad]2 [Ge]2 [Ge]2 | [Fd]6 A>[EA] | %32
w: |||
w: old faith Are the hope|of ev- ’ry land!||
w: |||
w: |||
 [Ad]2 [Ae]2 [Af]2 [Ad]>[Ad] | [GBe]2 [Bf]2 [Beg]2 [Bf]>[Be] | [Fda]3 [Fda]/ [Gca]3 [Fd]/ | %35
w: |||
w: |||
w: |||
w: |||
 [Fd]6 |] %36
w: |
w: |
w: |
w: |
V:2
 x8 || D3/2 x/ | x8 | x6 D3/2 x/ | x8 | x6 D3/2 x/ | x15/2 D/ | x8 | x6 A3/2 x/ | x6 || x2 | %11
w: |storms||e-||ag-|’Tis||name!|||
w: |Book||His||prom-|For||sin!|||
w: |Book||ior’s||sor-|Through||foe!|||
w: |Book||ful||tri-|Is||tears.|||
 d4 x4 | B4 x4 | x8 | d6 A2 | d4 x4 | B4 x4 | x8 | A6 x2 | x6 A2 | x8 | x8 | x6 A2 | f4 x4 | %24
w: on|old||the bul-|Thro’|stand||and|old|||||
w: ~|~||~ ~|~|~||~|~|||Oh,|and|
w: |||||||||||||
w: |||||||||||||
 d4 x4 | x8 | x6 || A>A | x8 | x8 | x8 | x6 A3/2 x/ | x8 | x8 | x7 | x6 |] %36
w: ||||||||||||
w: Are|||the grand|||||||||
w: ||||||||||||
w: ||||||||||||
V:3
 x8 || [D,F,]>[D,G,] | [D,A,]2 [D,D]2 [D,D][D,A,] [D,G,]>[D,F,] | %3
w: |~ ~|~ ~ ~ ~ ~ ~|
 [D,A,]2 [D,=G,]2 [D,A,]2 [D,F,]>[D,_G,] | [D,A,]2 [D,A,]2 [B,,B,][B,,B,] [C,A,]>[D,B,] | %5
w: ~ ~ ~ ~ ~|~ ~ ~ ~ ~ ~|
 [E,C]2 [E,B,]2 [A,,A,]2 [D,F,]>[D,G,] | [D,A,]2 [D,D]2 [D,D][D,A,] [D,G,]>[D,F,] | %7
w: ~ ~ ~ ~ ~|~ ~ ~ ~ ~ ~|
 [D,A,]2 [C,A,]2 [B,,B,]2 [F,A,]>[_F,A,] | [E,A,]2 [E,C]2 [E,D]2 [F,C]>[F,A,] | %9
w: ~ ~ ~ ~ ~|~ ~ ~ ~ ~|
 [D,A,][D,B,][E,C][E,D] [A,C]2 || A,2 | [D,A,]2 [D,A,]2 [E,A,]2 [A,,C]>[A,,E] | %12
w: ~ ~ ~ ~ ~|The|old Book and the dear|
 [D,D]2 [D,D]2 [D,A,]2 [D,A,]>[D,A,] | [D,D]2 [F,D]2 [E,B,]2 [A,,C]2 | D2 B,2 A,2 A,2 | %15
w: old faith ~ ~ ~|~ ~ on which|I stand! The grand|
 [D,A,]2 [D,A,]2 [E,A,]2 [A,,C]>[A,,E] | [D,D]2 [A,,D,D]2 [D,D]2 [D,D]>[D,D] | %17
w: and the dear old faith|~ ~ ~ ~ ~|
 [E,A,]2 [C,E]2 [B,,D]2 [E,D]2 | [A,,C]2 [G,E]2 [F,D]2 [E,A,]2 | [D,A,]2 [F,A,]2 [D,A,]2 (D,C,) | %20
w: ~ ~ ~ ~|~ ~ ~ ~|~ ~ ~ ~ *|
 [B,,B,]3 [C,=A,] [D,B,]2 [=D,B,]2 | [E,B,]2 [E,=G,]2 [E,B,]2 (E,D,) | %22
w: ~ ~ ~ ~|~ ~ ~ The *|
 [C,A,]3 [B,,=G,] [A,,A,]2 [A,C]2 | [D,D]2 [F,D]2 [A,C]2 [A,C]>[=A,C] | %24
w: old Book and the|dear old faith * *|
 [B,D]2 [F,D]2 [G,D]2 [=G,D]>[G,D] | [A,D]2 [F,D]2 [E,B,]2 [A,C]2 | [D,D]6 || A,>[G,C] | %28
w: ||||
 [F,A,]2 [E,C]2 [D,D]2 [F,D]>[F,D] | [G,B,]2 [F,B,]2 [E,E]2 [F,D]>[G,E] | %30
w: ||
 [A,F]2 [F,D]2 [E,B,]2 [A,C]2 | [D,D]6 A,>[G,C] | [F,A,]2 [E,C]2 [D,D]2 [F,D]>[F,D] | %33
w: |||
 [G,B,]2 [F,B,]2 [E,E]2 [F,D]>[G,E] | [A,D]3 [A,D]/ [A,,A,G]3 [D,A,]/ | (D,B,,F,, D,,3) |] %36
w: |||
V:4
 x8 || x2 | x8 | x8 | x8 | x8 | x8 | x8 | x8 | x6 || A,2 | x8 | x8 | x8 | D,6 A,2 | x8 | x8 | x8 | %18
w: ||||||||||grand||||old Book||||
 x8 | x6 F,2 | x8 | x6 =G,2 | x8 | x8 | x8 | x8 | x6 || A,3/2 x/ | x8 | x8 | x8 | x6 A,3/2 x/ | %32
w: |~||grand|||||||||||
 x8 | x8 | x7 | [D,A,]6 |] %36
w: ||||

